icons/ppe_goggles_fill.svg

<svg width="48" height="48" viewBox="0 0 48 48" fill="none" xmlns="http://www.w3.org/2000/svg">
<path d="M11.5 26C11.5 25.1716 12.1716 24.5 13 24.5H35C35.8284 24.5 36.5 25.1716 36.5 26V29C36.5 31.4853 34.4853 33.5 32 33.5C29.9753 33.5 28.2574 32.161 27.6946 30.3154C27.2641 28.9034 25.9353 27.5 24 27.5C22.0647 27.5 20.7359 28.9034 20.3054 30.3154C19.7426 32.161 18.0247 33.5 16 33.5C13.5147 33.5 11.5 31.4853 11.5 29V26Z" fill="black"/>
<path fill-rule="evenodd" clip-rule="evenodd" d="M17 9C9.8203 9 4 14.8203 4 22C4 24.419 5.71776 26.4367 8 26.9V29C8 33.4183 11.5817 37 16 37C19.6069 37 22.6538 34.6138 23.6532 31.3362C23.688 31.2222 23.753 31.13 23.823 31.072C23.8892 31.0172 23.9492 31 24 31C24.0508 31 24.1108 31.0172 24.177 31.072C24.247 31.13 24.312 31.2222 24.3468 31.3362C25.3462 34.6138 28.3931 37 32 37C36.4183 37 40 33.4183 40 29V26.9C42.2822 26.4367 44 24.419 44 22C44 14.8203 38.1797 9 31 9H17ZM39.8721 24.8713C41.1036 24.4977 42 23.3535 42 22C42 15.9249 37.0751 11 31 11H17C10.9249 11 6 15.9249 6 22C6 23.3535 6.8964 24.4977 8.12793 24.8713C8.63966 22.6535 10.6267 21 13 21H35C37.3733 21 39.3603 22.6535 39.8721 24.8713ZM13 23C11.3431 23 10 24.3431 10 26V29C10 32.3137 12.6863 35 16 35C18.7025 35 20.9902 33.2125 21.7402 30.7529C22.0205 29.8335 22.8589 29 24 29C25.1411 29 25.9795 29.8335 26.2598 30.7529C27.0098 33.2125 29.2975 35 32 35C35.3137 35 38 32.3137 38 29V26C38 24.3431 36.6569 23 35 23H13Z" fill="black"/>
</svg>

<svg
  xmlns="http://www.w3.org/2000/svg"
  width="24"
  height="24"
  viewBox="0 0 24 24"
  fill="none"
  stroke="currentColor"
  stroke-width="2"
  stroke-linecap="round"
  stroke-linejoin="round"
>
  <path d="M11.5 26a1.5 1.5 0 0 1 1.5-1.5h22a1.5 1.5 0 0 1 1.5 1.5v3a4.5 4.5 0 0 1-8.805 1.315c-.43-1.412-1.76-2.815-3.695-2.815s-3.264 1.403-3.695 2.815A4.5 4.5 0 0 1 11.5 29z" />
  <path
    fill-rule="evenodd"
    d="M17 9C9.82 9 4 14.82 4 22a5 5 0 0 0 4 4.9V29a8 8 0 0 0 15.653 2.336.56.56 0 0 1 .17-.264A.27.27 0 0 1 24 31c.05 0 .11.017.177.072.07.058.135.15.17.264A8 8 0 0 0 40 29v-2.1a5 5 0 0 0 4-4.9c0-7.18-5.82-13-13-13zm22.872 15.871A3 3 0 0 0 42 22c0-6.075-4.925-11-11-11H17c-6.075 0-11 4.925-11 11 0 1.354.896 2.498 2.128 2.871A5 5 0 0 1 13 21h22a5 5 0 0 1 4.872 3.871M13 23a3 3 0 0 0-3 3v3a6 6 0 0 0 11.74 1.753C22.02 29.833 22.86 29 24 29s1.98.834 2.26 1.753A6 6 0 0 0 38 29v-3a3 3 0 0 0-3-3z"
    clip-rule="evenodd"
  />
</svg>
